packages/katcn/src/icons/svg/leftAlign-solid.svg

<svg width="24" height="25" viewBox="0 0 24 25" fill="none" xmlns="http://www.w3.org/2000/svg">
<path d="M3.9 5.99601H20.2C21.2 5.99601 22.1 5.19601 22.1 4.09601C22.1 3.09601 21.3 2.19601 20.2 2.19601H3.9C2.8 2.29601 2 3.09601 2 4.19601C2 5.19601 2.8 5.99601 3.9 5.99601Z" fill="black"/>
<path d="M20.1 13.196H3.9C2.9 13.196 2 13.996 2 15.096C2 16.096 2.8 16.996 3.9 16.996H20.2C21.2 16.996 22.1 16.196 22.1 15.096C22 13.996 21.2 13.196 20.1 13.196Z" fill="black"/>
<path d="M3.9 11.396H13.9C14.9 11.396 15.8 10.596 15.8 9.49601C15.8 8.49601 15 7.59601 13.9 7.59601H3.9C2.8 7.69601 2 8.59601 2 9.59601C2 10.596 2.8 11.396 3.9 11.396Z" fill="black"/>
<path d="M13.8 18.596H3.8C2.8 18.596 1.9 19.396 1.9 20.496C1.9 21.496 2.7 22.396 3.8 22.396H13.8C14.8 22.396 15.7 21.596 15.7 20.496C15.7 19.396 14.9 18.596 13.8 18.596Z" fill="black"/>
</svg>

<svg xmlns="http://www.w3.org/2000/svg" fill="none" viewBox="0 0 24 25"><path fill="#000" d="M3.9 5.996h16.3c1 0 1.9-.8 1.9-1.9 0-1-.8-1.9-1.9-1.9H3.9c-1.1.1-1.9.9-1.9 2 0 1 .8 1.8 1.9 1.8m16.2 7.2H3.9c-1 0-1.9.8-1.9 1.9 0 1 .8 1.9 1.9 1.9h16.3c1 0 1.9-.8 1.9-1.9-.1-1.1-.9-1.9-2-1.9m-16.2-1.8h10c1 0 1.9-.8 1.9-1.9 0-1-.8-1.9-1.9-1.9h-10c-1.1.1-1.9 1-1.9 2s.8 1.8 1.9 1.8m9.9 7.2h-10c-1 0-1.9.8-1.9 1.9 0 1 .8 1.9 1.9 1.9h10c1 0 1.9-.8 1.9-1.9s-.8-1.9-1.9-1.9"/></svg>
